X: 29439
T: Night Before, The
R: slip jig
M: 9/8
K: Dmajor
|:FAA dAA BAG|FAA dAA GFE|FAA dAA dAA|Bcd edc d3:|
a3 afe def|a3 afd efg|a3 afe fed|Bcd edc d3|
a3 afe def|a3 afd efg|agf gfe fed|Bcd edc d3||

